X: 13527
T: Flowers Of Spring, The
R: jig
M: 6/8
K: Ddorian
DED DEG|AGE C2E|GEE cEE|CEG ABc|
DED DEG|AGE C2E|GEE cGE|1 DED A,B,C:|2 DED D3||
A2d dcd|efe dcA|(3ABc A CEG|AGA cAG|
A2d dcd|efe dcA|(3ABc A GEC|EDC D3:|

